icon-themes/sifr_dark_svg/sw/res/doublepage_a_10x22.svg

<svg height="10" viewBox="0 0 5.8208331 2.6458334" width="22" xmlns="http://www.w3.org/2000/svg"><g fill="#efefef" stroke-width=".132291"><path d="m3.3072916 0c-.2175802 0-.396875.1792949-.396875.396875l.0000001 1.8520833c0 .2175801.1792948.396875.396875.396875h1.3229166c.2175803 0 .3968751-.1792949.396875-.396875v-1.6536458c-.0000068-.0350836-.013948-.068728-.038757-.0935342l-.4630211-.4630208c-.0248063-.02480956-.0584508-.03875072-.0935344-.0387575zm0 .2645833.9260417.00000005v.26458333c.0000001.1322917.1322919.26458333.2645834.26458333h.2645833v1.45520829c0 .075578-.056714.1322917-.1322917.1322917h-1.3229166c-.075578 0-.1322916-.056714-.1322916-.1322917l-.0000001-1.8520833c0-.075578.056714-.1322917.1322916-.1322917z"/><path d="m2.5135416.00000003c.2175802 0 .396875.1792949.396875.396875l-.0000001 1.85208327c0 .2175801-.1792948.396875-.396875.396875h-1.3229166c-.21758025 0-.39687505-.1792949-.39687495-.396875v-1.65364577c.0000068-.0350836.013948-.068728.038757-.0935342l.46302105-.4630208c.0248063-.02480956.0584508-.03875072.0935344-.0387575zm0 .2645833-.9260417.00000005v.26458333c-.0000001.1322917-.1322919.26458333-.2645834.26458333h-.2645833v1.45520826c0 .075578.056714.1322917.1322917.1322917h1.3229166c.075578 0 .1322916-.056714.1322916-.1322917l.0000001-1.85208327c0-.075578-.056714-.1322917-.1322916-.1322917z"/></g></svg>

<?xml version="1.0" encoding="UTF-8" standalone="no"?>
<svg
   height="14"
   viewBox="0 0 5.8208331 3.7041668"
   width="22"
   version="1.1"
   id="svg522"
   sodipodi:docname="doublepage_a_10x22.svg"
   inkscape:export-filename="doublepage_a_10x22.png"
   inkscape:export-xdpi="90"
   inkscape:export-ydpi="90"
   inkscape:version="1.2.2 (b0a8486541, 2022-12-01)"
   xmlns:inkscape="http://www.inkscape.org/namespaces/inkscape"
   xmlns:sodipodi="http://sodipodi.sourceforge.net/DTD/sodipodi-0.dtd"
   xmlns="http://www.w3.org/2000/svg"
   xmlns:svg="http://www.w3.org/2000/svg">
  <defs
     id="defs526" />
  <sodipodi:namedview
     id="namedview524"
     pagecolor="#505050"
     bordercolor="#ffffff"
     borderopacity="1"
     inkscape:showpageshadow="0"
     inkscape:pageopacity="0"
     inkscape:pagecheckerboard="1"
     inkscape:deskcolor="#505050"
     showgrid="false"
     inkscape:zoom="23.6"
     inkscape:cx="11.059322"
     inkscape:cy="5.0635593"
     inkscape:window-width="1541"
     inkscape:window-height="787"
     inkscape:window-x="1347"
     inkscape:window-y="410"
     inkscape:window-maximized="0"
     inkscape:current-layer="svg522" />
  <g
     fill="#efefef"
     stroke-width="0.132291"
     id="g520"
     transform="translate(0,0.52916667)">
    <path
       d="M 3.3072916,0 C 3.0897114,0 2.9104166,0.1792949 2.9104166,0.396875 l 10e-8,1.8520833 c 0,0.2175801 0.1792948,0.396875 0.396875,0.396875 h 1.3229166 c 0.2175803,0 0.3968751,-0.1792949 0.396875,-0.396875 V 0.5953125 C 5.0270765,0.5602289 5.0131353,0.5265845 4.9883263,0.5017783 L 4.5253052,0.0387575 C 4.5004989,0.01394794 4.4668544,6.78e-6 4.4317708,0 Z m 0,0.2645833 0.9260417,5e-8 v 0.26458333 c 1e-7,0.1322917 0.1322919,0.26458333 0.2645834,0.26458333 H 4.7625 V 2.2489583 C 4.7625,2.3245363 4.705786,2.38125 4.6302083,2.38125 H 3.3072917 c -0.075578,0 -0.1322916,-0.056714 -0.1322916,-0.1322917 L 3.175,0.396875 c 0,-0.075578 0.056714,-0.1322917 0.1322916,-0.1322917 z"
       id="path516" />
    <path
       d="m 2.5135416,3e-8 c 0.2175802,0 0.396875,0.1792949 0.396875,0.396875 l -10e-8,1.85208327 c 0,0.2175801 -0.1792948,0.396875 -0.396875,0.396875 H 1.1906249 c -0.21758025,0 -0.39687505,-0.1792949 -0.39687495,-0.396875 V 0.59531253 c 6.8e-6,-0.0350836 0.013948,-0.068728 0.038757,-0.0935342 L 1.295528,0.03875753 C 1.3203343,0.01394797 1.3539788,6.81e-6 1.3890624,3e-8 Z m 0,0.2645833 -0.9260417,5e-8 v 0.26458333 c -1e-7,0.1322917 -0.1322919,0.26458333 -0.2645834,0.26458333 H 1.0583332 V 2.2489583 c 0,0.075578 0.056714,0.1322917 0.1322917,0.1322917 h 1.3229166 c 0.075578,0 0.1322916,-0.056714 0.1322916,-0.1322917 l 1e-7,-1.85208327 c 0,-0.075578 -0.056714,-0.1322917 -0.1322916,-0.1322917 z"
       id="path518" />
  </g>
  <rect
     style="opacity:0.35;fill:none;stroke:#efefef;stroke-width:0.264583;stroke-linecap:round;stroke-linejoin:bevel;stroke-opacity:1;paint-order:markers stroke fill"
     id="rect1538"
     width="5.0270839"
     height="3.4395835"
     x="0.39687482"
     y="0.1322915" />
</svg>
